src/animations/22/nm-stage01-connecting06.svg

<?xml version="1.0" encoding="UTF-8" standalone="no"?>
<!-- Created with Inkscape (http://www.inkscape.org/) -->

<svg
   xmlns:dc="http://purl.org/dc/elements/1.1/"
   xmlns:cc="http://creativecommons.org/ns#"
   xmlns:rdf="http://www.w3.org/1999/02/22-rdf-syntax-ns#"
   xmlns:svg="http://www.w3.org/2000/svg"
   xmlns="http://www.w3.org/2000/svg"
   xmlns:inkscape="http://www.inkscape.org/namespaces/inkscape"
   version="1.0"
   width="22"
   height="22"
   id="svg3315">
  <metadata
     id="metadata26">
    <rdf:RDF>
      <cc:Work
         rdf:about="">
        <dc:format>image/svg+xml</dc:format>
        <dc:type
           rdf:resource="http://purl.org/dc/dcmitype/StillImage" />
      </cc:Work>
    </rdf:RDF>
  </metadata>
  <defs
     id="defs3317" />
  <path
     d="M 9.4971057,8.0344093 6.9968794,3.7038902"
     inkscape:connector-curvature="0"
     id="path3279"
     style="fill:none;stroke:#878787;stroke-width:1px;stroke-linecap:round;stroke-linejoin:miter;stroke-opacity:1" />
  <path
     d="M 16.003118,19.303153 13.50176,14.970673"
     inkscape:connector-curvature="0"
     id="path3281"
     style="fill:none;stroke:#878787;stroke-width:1px;stroke-linecap:round;stroke-linejoin:miter;stroke-opacity:1" />
  <path
     d="M 8.6674804,8.6710041 5.1316263,5.135149"
     inkscape:connector-curvature="0"
     id="path2629"
     style="opacity:0.75;fill:none;stroke:#878787;stroke-width:1px;stroke-linecap:round;stroke-linejoin:miter;stroke-opacity:1" />
  <path
     d="M 17.868371,17.871894 14.330916,14.334438"
     inkscape:connector-curvature="0"
     id="path2631"
     style="opacity:0.75;fill:none;stroke:#878787;stroke-width:1px;stroke-linecap:round;stroke-linejoin:miter;stroke-opacity:1" />
  <path
     d="M 8.0308865,9.5006288 3.7003676,7.0004025"
     inkscape:connector-curvature="0"
     id="path3403"
     style="opacity:0.6;fill:none;stroke:#878787;stroke-width:1px;stroke-linecap:round;stroke-linejoin:miter;stroke-opacity:1" />
  <path
     d="m 19.29963,16.006641 -4.33248,-2.50136"
     inkscape:connector-curvature="0"
     id="path3405"
     style="opacity:0.6;fill:none;stroke:#878787;stroke-width:1px;stroke-linecap:round;stroke-linejoin:miter;stroke-opacity:1" />
  <path
     d="M 7.6307061,10.466749 2.8006404,9.1725345"
     inkscape:connector-curvature="0"
     id="path3407"
     style="opacity:0.5;fill:none;stroke:#878787;stroke-width:1px;stroke-linecap:round;stroke-linejoin:miter;stroke-opacity:1" />
  <path
     d="M 20.199357,13.834508 15.367104,12.539709"
     inkscape:connector-curvature="0"
     id="path3409"
     style="opacity:0.5;fill:none;stroke:#878787;stroke-width:1px;stroke-linecap:round;stroke-linejoin:miter;stroke-opacity:1" />
  <path
     d="m 7.4942125,11.503522 -5.0004518,0"
     inkscape:connector-curvature="0"
     id="path3415"
     style="opacity:0.4;fill:none;stroke:#878787;stroke-width:1px;stroke-linecap:round;stroke-linejoin:miter;stroke-opacity:1" />
  <path
     d="m 20.506238,11.503522 -5.002718,-1e-6"
     inkscape:connector-curvature="0"
     id="path3417"
     style="opacity:0.4;fill:none;stroke:#878787;stroke-width:1px;stroke-linecap:round;stroke-linejoin:miter;stroke-opacity:1" />
  <path
     d="M 7.6307072,12.540296 2.8006395,13.834508"
     inkscape:connector-curvature="0"
     id="path3419"
     style="opacity:0.3;fill:none;stroke:#878787;stroke-width:1px;stroke-linecap:round;stroke-linejoin:miter;stroke-opacity:1" />
  <path
     d="M 20.199357,9.1725359 15.367104,10.467335"
     inkscape:connector-curvature="0"
     id="path3421"
     style="opacity:0.3;fill:none;stroke:#878787;stroke-width:1px;stroke-linecap:round;stroke-linejoin:miter;stroke-opacity:1" />
  <path
     d="M 8.0308863,13.506415 3.7003673,16.00664"
     inkscape:connector-curvature="0"
     id="path3423"
     style="opacity:0.2;fill:none;stroke:#878787;stroke-width:1px;stroke-linecap:round;stroke-linejoin:miter;stroke-opacity:1" />
  <path
     d="M 19.29963,7.0004014 14.96715,9.5017606"
     inkscape:connector-curvature="0"
     id="path3425"
     style="opacity:0.2;fill:none;stroke:#878787;stroke-width:1px;stroke-linecap:round;stroke-linejoin:miter;stroke-opacity:1" />
  <path
     d="M 8.6674815,14.336041 5.131627,17.871894"
     inkscape:connector-curvature="0"
     id="path3427"
     style="opacity:0.15;fill:none;stroke:#878787;stroke-width:1px;stroke-linecap:round;stroke-linejoin:miter;stroke-opacity:1" />
  <path
     d="M 17.868372,5.1351494 14.330916,8.6726045"
     inkscape:connector-curvature="0"
     id="path3429"
     style="opacity:0.15;fill:none;stroke:#878787;stroke-width:1px;stroke-linecap:round;stroke-linejoin:miter;stroke-opacity:1" />
  <path
     d="M 9.4971063,14.972634 6.9968808,19.303152"
     inkscape:connector-curvature="0"
     id="path3431"
     style="opacity:0.1;fill:none;stroke:#878787;stroke-width:1px;stroke-linecap:round;stroke-linejoin:miter;stroke-opacity:1" />
  <path
     d="M 16.003118,3.7038896 13.50176,8.0363706"
     inkscape:connector-curvature="0"
     id="path3433"
     style="opacity:0.1;fill:none;stroke:#878787;stroke-width:1px;stroke-linecap:round;stroke-linejoin:miter;stroke-opacity:1" />
  <path
     d="m 11.5,15.509308 -2e-6,5.000452"
     inkscape:connector-curvature="0"
     id="path3435"
     style="opacity:0.05;fill:none;stroke:#878787;stroke-width:1px;stroke-linecap:round;stroke-linejoin:miter;stroke-opacity:1" />
  <path
     d="m 11.499998,2.4972823 1e-6,5.0027179"
     inkscape:connector-curvature="0"
     id="path3437"
     style="opacity:0.05;fill:none;stroke:#878787;stroke-width:1px;stroke-linecap:round;stroke-linejoin:miter;stroke-opacity:1" />
</svg>

<svg width="22" height="22" version="1.0" xmlns="http://www.w3.org/2000/svg" xmlns:cc="http://creativecommons.org/ns#" xmlns:dc="http://purl.org/dc/elements/1.1/" xmlns:rdf="http://www.w3.org/1999/02/22-rdf-syntax-ns#">
 <metadata>
  <rdf:RDF>
   <cc:Work rdf:about="">
    <dc:format>image/svg+xml</dc:format>
    <dc:type rdf:resource="http://purl.org/dc/dcmitype/StillImage"/>
   </cc:Work>
  </rdf:RDF>
 </metadata>
 <path d="m9.4971 8.0344-2.5002-4.3305" fill="none" stroke="#878787" stroke-linecap="round" stroke-width="1px"/>
 <path d="m16.003 19.303-2.5014-4.3325" fill="none" stroke="#878787" stroke-linecap="round" stroke-width="1px"/>
 <path d="m8.6675 8.671-3.5359-3.5359" fill="none" opacity=".75" stroke="#878787" stroke-linecap="round" stroke-width="1px"/>
 <path d="m17.868 17.872-3.5375-3.5375" fill="none" opacity=".75" stroke="#878787" stroke-linecap="round" stroke-width="1px"/>
 <path d="m8.0309 9.5006-4.3305-2.5002" fill="none" opacity=".6" stroke="#878787" stroke-linecap="round" stroke-width="1px"/>
 <path d="m19.3 16.007-4.3325-2.5014" fill="none" opacity=".6" stroke="#878787" stroke-linecap="round" stroke-width="1px"/>
 <path d="m7.6307 10.467-4.8301-1.2942" fill="none" opacity=".5" stroke="#878787" stroke-linecap="round" stroke-width="1px"/>
 <path d="m20.199 13.835-4.8323-1.2948" fill="none" opacity=".5" stroke="#878787" stroke-linecap="round" stroke-width="1px"/>
 <path d="m7.4942 11.504h-5.0005" fill="none" opacity=".4" stroke="#878787" stroke-linecap="round" stroke-width="1px"/>
 <path d="m20.506 11.504-5.0027-1e-6" fill="none" opacity=".4" stroke="#878787" stroke-linecap="round" stroke-width="1px"/>
 <path d="m7.6307 12.54-4.8301 1.2942" fill="none" opacity=".3" stroke="#878787" stroke-linecap="round" stroke-width="1px"/>
 <path d="m20.199 9.1725-4.8323 1.2948" fill="none" opacity=".3" stroke="#878787" stroke-linecap="round" stroke-width="1px"/>
 <path d="m8.0309 13.506-4.3305 2.5002" fill="none" opacity=".2" stroke="#878787" stroke-linecap="round" stroke-width="1px"/>
 <path d="m19.3 7.0004-4.3325 2.5014" fill="none" opacity=".2" stroke="#878787" stroke-linecap="round" stroke-width="1px"/>
 <path d="m8.6675 14.336-3.5359 3.5359" fill="none" opacity=".15" stroke="#878787" stroke-linecap="round" stroke-width="1px"/>
 <path d="m17.868 5.1351-3.5375 3.5375" fill="none" opacity=".15" stroke="#878787" stroke-linecap="round" stroke-width="1px"/>
 <path d="m9.4971 14.973-2.5002 4.3305" fill="none" opacity=".1" stroke="#878787" stroke-linecap="round" stroke-width="1px"/>
 <path d="m16.003 3.7039-2.5014 4.3325" fill="none" opacity=".1" stroke="#878787" stroke-linecap="round" stroke-width="1px"/>
 <path d="m11.5 15.509-2e-6 5.0005" fill="none" opacity=".05" stroke="#878787" stroke-linecap="round" stroke-width="1px"/>
 <path d="m11.5 2.4973 1e-6 5.0027" fill="none" opacity=".05" stroke="#878787" stroke-linecap="round" stroke-width="1px"/>
</svg>
